X: 4858
T: Braes Of Auchtertyre, The
R: strathspey
M: 4/4
K: Cmajor
G,/|C2 C>F E<GG>A|c>de>d c>AG<c|(3AAA A>G A2 a2|g>cf>e d2 c2|
C3 F E<GG>A|c>de>d c>AG<c|A>cG>c F>cE>c|d>Bc<E D2 C3/2||
f/|e>fg>a g>ec>g|a>fe>g e>dc>G|(3AAA a>g a2 (3abc’|e<cf>e d2 c>f|
e>fg>a g>ec>g|afdg e>dc>G|A>cG>c F>cE>c|d/c/B/A/ c<E D2 C3/2||

